X:1
T:Gertrude's dream waltz Sheet music supplied by www.theperfectscores.com
C:L van Beethoven
%%score 1 2
L:1/8
Q:1/8=74
M:3/8
I:linebreak $
K:Gmin
V:1 treble nm="Piano Collection for Beginners - Grade 2"
L:1/16
V:2 bass nm="Piano Collection for Beginners - Grade 2"
V:1
"^Moderato" !4!d4 (!1!F/!2!B/!4!d/!5!f/) | !4!e4!<(! (!1!G/!2!c/!3!e/!5!g/)!<)! | %2
 f3 (!1!F!2!A!3!c) |$!>(! (!5!f2!4!=e2!3!_e2)!>)! | !2!d4 (F/B/d/f/) | e4!<(! (G/c/e/g/)!<)! | %6
 f3 (.!1!FGA) | B4 z2 ::$ !1!!3!!5![FAc]2[FAc]>[FAc]!2!!4!!5![GBc]>[GBc] | %9
 [FAc]2[FAc]>[FAc][GBc]>[GBc] |"_cresc." [FAc]2!1!!2!!5![Acf]2!1!!3!!5![cfa]2 | %11
 !2!!4![=eg]2 !1!!2!!5![egc']4 |$ !1!!3!!5![DFA]2[DFA]>[DFA]!2!!4!!5![=EGA]>[EGA] | %13
 [DFA]2[DFA]>[DFA][=EGA]>[EGA] | [DFA]2!5![Adf]2!4![FG=B]2 | !1!!2!!5![=EGc]4 z2 ::$ %16
 (!5!c2!4!=B2!3!_B2 | !2!G3)!<(! (!1!=E!2!G!3!B!<)! |!>(! !5!d2!>)!(!4!c)!<(!=EGB!<)! | %19
 (d2!>(!.c2))!>)!c>c |$ (!4!c2=B2_B2) | !1!A2>(!2!c2!4!f!5!a |"_(a)" !4!g2>)(c2d=e) |1 f4 z2 :|2$ %24
 f2 z (f=ef |: d3) (!4!bab | !3!a2!>(! !2!g)(!4!g^f(g!>)! | !1!A3))!>(! !5!g=f!>)!_e |$ %28
 ^c2!>(!.!1!d(!3!f=ef!>)! | d3) (!4!bc'b | a2!>(! !2!g)(!4!g^fg!>)! | %31
!>(! A3) (!5!g!>)!!4!f!1!A) |1$ !2!B2 z (f=ef) :|2 B4 z2 || d4 (F/B/d/f/) ||$ e4 (G/c/e/g/) | %36
 f3 (FAc) | (f2!>(!=e2_e2)!>)! | d4 (F/B/d/f/) |$ e4 (G/c/e/g/) | f3"_rit." (FGA | B4) z2 |]$ %42
[K:Amin][M:4/8][Q:1/8=90] g a !3!g ^f gc d"_www.theperfectscores.com"e | %43
V:2
 [B,,B,]!5!!3!!1![F,B,D][F,B,D] | [E,,E,]!3!!1![E,G,][E,G,] | [F,,F,]!3!!1![F,A,]!4!!2![F,A,] |$ %3
 ([F,A,][G,B,][A,C]) | [B,,B,][F,B,D][F,B,D] | [E,,E,][E,G,][E,G,] | [F,,F,][F,A,E][F,A,E] | %7
 [B,D]2 z ::$ [F,,F,]2 [=E,,=E,] | [F,,F,]2 !^![=E,,=E,] | [F,,F,]2 [F,,F,] | [C,,C,] [C,,C,]2 |$ %12
 [D,,D,]2 !^![^C,,^C,] | [D,,D,]2 !^![^C,,^C,] |"_cresc." [D,,D,]2 [G,,G,] | CC, z ::$ %16
"^P dolce" [C,,C,] [C,=E,B,]2 | [C,,C,][C,=E,B,][C,E,B,] | [C,,C,] [C,=E,B,]2 | %19
 [C,,C,] [C,=E,B,]2 |$ [F,,F,] [C,=E,B,]2 | [F,,F,]!<(![F,A,][F,A,]!<)! | %22
 [C,,C,][C,=E,B,][C,E,B,] |1 [F,A,]2 z :|2$ [F,A,] z z |: [B,,B,][B,D][B,D] | [E,,E,][E,G,][E,G,] | %27
 [F,,F,][F,A,][F,A,] |$ [B,,B,][B,D][B,D] | [B,,B,][B,D][B,D] | [E,,E,][E,G,][E,G,] | %31
 [F,,F,][A,CE][A,CE] |1$ [B,D] z z :|2 [B,D]2 z || [B,,B,][F,B,D][F,B,D] ||$ %35
 [E,,E,][E,G,]!<(![E,G,]!<)! | [F,,F,][F,A,][F,A,] | ([F,A,][G,B,][A,C]) | [B,,B,][F,B,D][F,B,D] |$ %39
 [E,,E,][E,G,]!<(![E,G,]!<)! |"^poco" [F,,F,][F,A,E][F,A,E] | [B,D] B,, z |]$[M:4/8] z4 | %43

